packages/foundations/assets/icons/functional/images/file/cloud_upload_16.svg

<svg width="16" height="16" viewBox="0 0 16 16" fill="none" xmlns="http://www.w3.org/2000/svg">
<g clip-path="url(#clip0_185_897)">
<path fill-rule="evenodd" clip-rule="evenodd" d="M9.59998 2.6C11.8091 2.6 13.6 4.39086 13.6 6.6L13.5896 6.8744L13.6582 6.95126C14.0483 7.41852 14.2996 7.99024 14.3756 8.60419L14.3944 8.81032L14.4 9C14.4 10.6427 13.159 12.0062 11.5284 12.182L11.3641 12.1956L11.1992 12.1957C10.758 12.1958 10.4002 11.8383 10.4 11.3971C10.4 11.397 10.4 11.3972 10.4 11.3971C10.4 10.9557 10.7577 10.5975 11.1992 10.5973L11.2947 10.5973C12.0971 10.5508 12.7364 9.91371 12.7955 9.12015L12.8 9C12.8 8.57028 12.6304 8.16967 12.3358 7.87332L12.2331 7.77851L11.881 7.48067L11.9623 7.02674C11.9873 6.88714 12 6.74457 12 6.6C12 5.27452 10.9255 4.2 9.59998 4.2C8.77709 4.2 8.02848 4.61703 7.59119 5.28834L7.50795 5.42594L7.23155 5.91923L6.67431 5.82329C6.58456 5.80784 6.49295 5.8 6.39998 5.8C5.73461 5.8 5.14878 6.20995 4.91079 6.81238L4.86791 6.93537L4.7437 7.34444L4.3346 7.46851C3.66633 7.67118 3.19998 8.29034 3.19998 9C3.19998 9.84349 3.85268 10.5345 4.68057 10.5956L4.79998 10.6C5.24158 10.6 5.59998 10.958 5.59998 11.3996C5.59998 11.8413 5.24211 12.1996 4.80038 12.2C3.08662 12.2 1.68711 10.8528 1.60389 9.15971L1.59998 9C1.59998 7.80153 2.26456 6.73271 3.27707 6.18477L3.42405 6.11008L3.48318 6.0832L3.5098 6.02423C3.98369 5.02931 4.94611 4.33623 6.05997 4.21796L6.23706 4.2041L6.39998 4.2L6.54593 4.01763C7.25255 3.18064 8.47306 2.65306 9.59998 2.6ZM7.99998 7.4L8.06017 7.40223L8.16056 7.41619L8.24969 7.43979L8.33855 7.47494L8.41654 7.51679L8.50034 7.57575L8.56566 7.63431L9.76566 8.83431C10.0781 9.14673 10.0781 9.65326 9.76566 9.96568C9.50398 10.2274 9.10611 10.2699 8.80019 10.0932L8.79998 12.6C8.79998 13.0418 8.4418 13.4 7.99998 13.4C7.58971 13.4 7.25157 13.0939 7.20536 12.696L7.19998 12.6L7.20054 10.0927C6.9226 10.2537 6.56852 10.2335 6.30966 10.0322L6.23429 9.96568C5.9459 9.6773 5.92372 9.22351 6.16774 8.90968L6.23429 8.83431L7.43429 7.63431C7.46261 7.606 7.49252 7.58025 7.52373 7.55707L7.61273 7.49974L7.70291 7.45698L7.78718 7.42867L7.8812 7.40881L7.92795 7.4032L7.99998 7.4Z" fill="#1A1C1F"/>
</g>
<defs>
<clipPath id="clip0_185_897">
<rect width="16" height="16" fill="white"/>
</clipPath>
</defs>
</svg>

<svg xmlns="http://www.w3.org/2000/svg" width="16" height="16" fill="none"><g clip-path="url(#a)"><path fill="#1A1C1F" fill-rule="evenodd" d="M9.6 2.6a4 4 0 0 1 4 4l-.01.274.068.077c.39.468.642 1.04.718 1.653l.018.206.006.19a3.203 3.203 0 0 1-2.872 3.182l-.164.014H11.2a.8.8 0 0 1 0-1.598h.096a1.6 1.6 0 0 0 1.5-1.478L12.8 9c0-.43-.17-.83-.464-1.127l-.103-.094-.352-.298.081-.454Q12 6.817 12 6.6a2.4 2.4 0 0 0-4.409-1.312l-.083.138-.276.493-.558-.096a1.602 1.602 0 0 0-1.764.99l-.042.122-.124.41-.41.124a1.601 1.601 0 0 0 .347 3.127l.119.004a.8.8 0 0 1 0 1.6 3.2 3.2 0 0 1-3.196-3.04L1.6 9c0-1.198.665-2.267 1.677-2.815l.147-.075.06-.027.026-.059a3.2 3.2 0 0 1 2.55-1.806l.177-.014L6.4 4.2l.146-.182C7.253 3.18 8.473 2.653 9.6 2.6M8 7.4l.06.002.1.014.09.024.089.035.078.042.083.059.066.058 1.2 1.2a.8.8 0 0 1-.966 1.26V12.6a.8.8 0 0 1-1.595.096L7.2 12.6v-2.507a.8.8 0 0 1-.89-.06l-.076-.067a.8.8 0 0 1-.066-1.056l.066-.076 1.2-1.2a1 1 0 0 1 .09-.077l.089-.057.09-.043.084-.028.094-.02.047-.006z" clip-rule="evenodd"/></g><defs><clipPath id="a"><path fill="#fff" d="M0 0h16v16H0z"/></clipPath></defs></svg>
